X: 1662
T: Gilmore's Hornpipe
M:2/4
L:1/16
B:O'Neill's 1662
K:G
B-A \
| G2G-A BdGB | cdec dgGB | caBgAgGe | Fdfe dcBA |
| G2G-A BdGB | cdec dgGB | cdef gdec | B2G2G2 :|
|: B-c \
| dgBd GBdg | fage dfac' | bgaf gedB | c-eA2 A2B-c |
| dgBd GBdg | fage dfac' | bgaf gedc | B2G2G :|


